html/dist/img/spam.svg

<svg width="64" height="64" viewBox="0 0 64 64" fill="none" xmlns="http://www.w3.org/2000/svg"><path d="M32 1.8c16.6 0 30.3 13.5 30.3 30.3S48.6 62.3 32 62.3 1.8 48.6 1.8 32 15.4 1.8 32 1.8z" stroke="#E30613" stroke-width="1.935" stroke-miterlimit="10"/><path d="M30.3 35.4h-4.1l-8.3-13.9h-.1v13.9h-4.1V14.8h4.1l8.3 13.9h.1V14.8h4.1v20.6zm20.4-8.5c0 2.5-.8 4.6-2.4 6.3-1.6 1.6-3.7 2.5-6.2 2.5s-4.6-.8-6.2-2.5c-1.6-1.6-2.4-3.7-2.4-6.3v-3.7c0-2.5.8-4.6 2.4-6.3 1.6-1.7 3.6-2.5 6.2-2.5s4.6.8 6.2 2.5c1.6 1.7 2.4 3.7 2.4 6.3v3.7zm-4.1-3.7c0-1.6-.4-2.9-1.2-3.9-.8-1-1.9-1.5-3.3-1.5s-2.5.5-3.3 1.5c-.8 1-1.2 2.3-1.2 3.9v3.7c0 1.6.4 3 1.2 4 .8 1 1.9 1.5 3.3 1.5s2.5-.5 3.3-1.5c.8-1 1.2-2.4 1.2-4v-3.7zM19 46.6c0-.4-.1-.7-.4-1-.3-.2-.8-.5-1.5-.7-1.2-.4-2.1-.8-2.7-1.3-.6-.5-.9-1.2-.9-2s.3-1.5 1-2.1c.7-.5 1.6-.8 2.7-.8s2.1.3 2.8.9c.7.6 1 1.3 1 2.3h-2c0-.5-.2-.9-.5-1.2-.3-.3-.8-.4-1.3-.4s-.9.1-1.2.4c-.3.2-.4.6-.4.9 0 .4.2.6.5.9.3.2.8.5 1.6.7 1.1.3 2 .7 2.6 1.3.6.5.9 1.2.9 2.1 0 .9-.3 1.6-1 2.1s-1.6.8-2.7.8-2.1-.3-2.9-.8c-.8-.6-1.2-1.4-1.2-2.5h2c0 .6.2 1.1.5 1.4.4.3.8.4 1.5.4.6 0 1-.1 1.3-.3.2-.4.3-.7.3-1.1zm5.7-1v3.8h-2.1V39h4c1.2 0 2.1.3 2.8.9.7.6 1 1.4 1 2.4s-.3 1.8-1 2.4c-.7.6-1.6.9-2.8.9h-1.9zm0-1.6h1.9c.6 0 1-.2 1.3-.5.3-.3.4-.7.4-1.2s-.1-.9-.4-1.2c-.3-.3-.7-.5-1.3-.5h-1.9V44zm11.4 3.1h-3.4l-.7 2.2h-2.2L33.3 39h2.1l3.5 10.4h-2.2l-.6-2.3zm-2.9-1.6h2.3l-1.1-3.7-1.2 3.7zm12.1 1.1L48 39h2.7v10.4h-2.1v-7.1l-2.6 7h-1.4L42 42.2v7.1h-2.1V39h2.7l2.7 7.6z" fill="#E30613"/><path d="M13.6 50.4l-3 3m42.8-42.8l-4.8 4.8" stroke="#E30613" stroke-width="1.935" stroke-miterlimit="10" stroke-linecap="round"/></svg>

<svg width="64" height="64" viewBox="0 0 64 64" fill="none" xmlns="http://www.w3.org/2000/svg">
<path d="M32 1.8C48.6 1.8 62.3 15.3 62.3 32.1C62.3 48.9 48.6 62.3 32 62.3C15.4 62.3 1.79999 48.6 1.79999 32C1.79999 15.4 15.4 1.8 32 1.8Z" stroke="#E30613" stroke-width="1.9349" stroke-miterlimit="10"/>
<path d="M30.3 35.4H26.2L17.9 21.5H17.8V35.4H13.7V14.8H17.8L26.1 28.7H26.2V14.8H30.3V35.4Z" fill="#E30613"/>
<path d="M50.7 26.9C50.7 29.4 49.9 31.5 48.3 33.2C46.7 34.8 44.6 35.7 42.1 35.7C39.6 35.7 37.5 34.9 35.9 33.2C34.3 31.6 33.5 29.5 33.5 26.9V23.2C33.5 20.7 34.3 18.6 35.9 16.9C37.5 15.2 39.5 14.4 42.1 14.4C44.7 14.4 46.7 15.2 48.3 16.9C49.9 18.6 50.7 20.6 50.7 23.2V26.9ZM46.6 23.2C46.6 21.6 46.2 20.3 45.4 19.3C44.6 18.3 43.5 17.8 42.1 17.8C40.7 17.8 39.6 18.3 38.8 19.3C38 20.3 37.6 21.6 37.6 23.2V26.9C37.6 28.5 38 29.9 38.8 30.9C39.6 31.9 40.7 32.4 42.1 32.4C43.5 32.4 44.6 31.9 45.4 30.9C46.2 29.9 46.6 28.5 46.6 26.9V23.2Z" fill="#E30613"/>
<path d="M19 46.6C19 46.2 18.9 45.9 18.6 45.6C18.3 45.4 17.8 45.1 17.1 44.9C15.9 44.5 15 44.1 14.4 43.6C13.8 43.1 13.5 42.4 13.5 41.6C13.5 40.8 13.8 40.1 14.5 39.5C15.2 39 16.1 38.7 17.2 38.7C18.3 38.7 19.3 39 20 39.6C20.7 40.2 21 40.9 21 41.9H19C19 41.4 18.8 41 18.5 40.7C18.2 40.4 17.7 40.3 17.2 40.3C16.7 40.3 16.3 40.4 16 40.7C15.7 40.9 15.6 41.3 15.6 41.6C15.6 42 15.8 42.2 16.1 42.5C16.4 42.7 16.9 43 17.7 43.2C18.8 43.5 19.7 43.9 20.3 44.5C20.9 45 21.2 45.7 21.2 46.6C21.2 47.5 20.9 48.2 20.2 48.7C19.5 49.2 18.6 49.5 17.5 49.5C16.4 49.5 15.4 49.2 14.6 48.7C13.8 48.1 13.4 47.3 13.4 46.2H15.4C15.4 46.8 15.6 47.3 15.9 47.6C16.3 47.9 16.7 48 17.4 48C18 48 18.4 47.9 18.7 47.7C18.9 47.3 19 47 19 46.6Z" fill="#E30613"/>
<path d="M24.7 45.6V49.4H22.6V39H26.6C27.8 39 28.7 39.3 29.4 39.9C30.1 40.5 30.4 41.3 30.4 42.3C30.4 43.3 30.1 44.1 29.4 44.7C28.7 45.3 27.8 45.6 26.6 45.6H24.7ZM24.7 44H26.6C27.2 44 27.6 43.8 27.9 43.5C28.2 43.2 28.3 42.8 28.3 42.3C28.3 41.8 28.2 41.4 27.9 41.1C27.6 40.8 27.2 40.6 26.6 40.6H24.7V44Z" fill="#E30613"/>
<path d="M36.1 47.1H32.7L32 49.3H29.8L33.3 39H35.4L38.9 49.4H36.7L36.1 47.1ZM33.2 45.5H35.5L34.4 41.8L33.2 45.5Z" fill="#E30613"/>
<path d="M45.3 46.6L48 39H50.7V49.4H48.6V42.3L46 49.3H44.6L42 42.2V49.3H39.9V39H42.6L45.3 46.6Z" fill="#E30613"/>
<path d="M13.6 50.4L10.6 53.4" stroke="#E30613" stroke-width="1.9349" stroke-miterlimit="10" stroke-linecap="round"/>
<path d="M53.4 10.6L48.6 15.4" stroke="#E30613" stroke-width="1.9349" stroke-miterlimit="10" stroke-linecap="round"/>
</svg>
